packages/foundations/assets/icons/functional/images/business & payment/discount_20.svg

<svg width="20" height="20" viewBox="0 0 20 20" fill="none" xmlns="http://www.w3.org/2000/svg">
<g clip-path="url(#clip0_184_35)">
<path fill-rule="evenodd" clip-rule="evenodd" d="M10.04 1.723C10.64 1.705 11.24 1.998 11.62 2.467L12.213 3.198L13.168 2.973C13.3275 2.93422 13.4909 2.91408 13.655 2.913C14.751 2.913 15.675 3.766 15.735 4.863L15.787 5.797L16.685 6.172C17.0708 6.33004 17.4014 6.59843 17.6353 6.94354C17.8692 7.28864 17.9961 7.69511 18 8.112C18 8.498 17.88 8.884 17.655 9.227L17.147 10L17.654 10.836C17.86 11.176 17.98 11.563 17.98 11.97C17.9778 12.3832 17.8508 12.7861 17.6156 13.1259C17.3804 13.4657 17.048 13.7264 16.662 13.874L15.787 14.204L15.707 15.179C15.623 16.191 14.792 17.107 13.634 17.107C13.4571 17.1084 13.2807 17.0876 13.109 17.045L12.213 16.802L11.573 17.541C11.128 18.053 10.66 18.255 9.959 18.277C9.359 18.295 8.759 18.002 8.379 17.533L7.787 16.802L6.832 17.027C6.67254 17.0658 6.50911 17.0859 6.345 17.087C5.249 17.087 4.325 16.234 4.265 15.137L4.213 14.203L3.314 13.831C2.514 13.499 2 12.76 2 11.909C2 11.502 2.12 11.116 2.345 10.773L2.853 10L2.34 9.146C2.13433 8.8098 2.02373 8.4241 2.02 8.03C2.02219 7.61677 2.14921 7.21385 2.38441 6.87408C2.61961 6.53431 2.952 6.27355 3.338 6.126L4.213 5.796L4.315 4.822C4.355 3.726 5.289 2.893 6.365 2.893C6.548 2.893 6.731 2.913 6.891 2.955L7.787 3.198L8.423 2.455C8.856 1.951 9.34 1.745 10.041 1.723H10.04ZM10.02 3.706L9.396 4.461C9.14316 4.76819 8.80635 4.99513 8.42669 5.11411C8.04703 5.23308 7.64094 5.23895 7.258 5.131L6.366 4.883L6.305 4.923L6.248 5.858C6.22781 6.25554 6.09181 6.63851 5.85674 6.95975C5.62168 7.28099 5.29781 7.52648 4.925 7.666L4.051 7.99L4.031 8.071L4.538 8.865C4.743 9.187 4.863 9.574 4.863 9.959C4.863 10.365 4.743 10.752 4.517 11.095L4.01 11.868L4.03 11.949L4.905 12.291C5.2753 12.4337 5.59649 12.6804 5.82995 13.0013C6.06341 13.3222 6.1992 13.7037 6.221 14.1L6.264 15.035L6.324 15.076L7.217 14.846C7.60152 14.7388 8.00912 14.7475 8.38873 14.8709C8.76835 14.9944 9.10308 15.2271 9.351 15.54L9.939 16.274H10.02L10.609 15.54C10.7975 15.3067 11.0358 15.1185 11.3064 14.9891C11.577 14.8597 11.8731 14.7923 12.173 14.792C12.355 14.792 12.557 14.817 12.743 14.868L13.634 15.117L13.695 15.077L13.752 14.142C13.7722 13.7445 13.9082 13.3615 14.1433 13.0402C14.3783 12.719 14.7022 12.4735 15.075 12.334L15.949 12.01L15.969 11.929L15.462 11.135C15.2528 10.8082 15.1401 10.429 15.137 10.041C15.137 9.635 15.257 9.248 15.483 8.905L15.99 8.132L15.97 8.051L15.095 7.709C14.7247 7.56627 14.4035 7.31961 14.1701 6.9987C13.9366 6.67778 13.8008 6.29625 13.779 5.9L13.736 4.965L13.676 4.924L12.78 5.166C12.3945 5.2626 11.9894 5.2469 11.6125 5.12074C11.2356 4.99458 10.9027 4.76323 10.653 4.454L10.061 3.726C10.061 3.706 10.04 3.706 10.02 3.706ZM6.995 8.01C6.98894 7.87425 7.01045 7.73868 7.05822 7.61147C7.106 7.48426 7.17905 7.36804 7.27297 7.26984C7.36689 7.17164 7.47973 7.09348 7.60468 7.04008C7.72964 6.98668 7.86411 6.95915 8 6.95915C8.13589 6.95915 8.27036 6.98668 8.39532 7.04008C8.52027 7.09348 8.63311 7.17164 8.72703 7.26984C8.82095 7.36804 8.894 7.48426 8.94178 7.61147C8.98955 7.73868 9.01106 7.87425 9.005 8.01C9.00474 8.27381 8.89982 8.52674 8.71328 8.71328C8.52674 8.89982 8.27381 9.00473 8.01 9.005C7.87788 9.00685 7.7467 8.98252 7.62402 8.93342C7.50135 8.88432 7.38961 8.81142 7.29525 8.71892C7.20089 8.62642 7.12577 8.51615 7.07424 8.39448C7.02271 8.2728 6.99578 8.14213 6.995 8.01ZM7.096 11.502L11.502 7.076L12.924 8.498L8.498 12.904L7.096 11.502ZM10.995 11.99C10.995 11.442 11.442 10.995 11.99 10.995C12.1899 10.9928 12.3859 11.0503 12.553 11.1599C12.7201 11.2696 12.8508 11.4266 12.9283 11.6109C13.0058 11.7952 13.0266 11.9984 12.9881 12.1945C12.9497 12.3907 12.8536 12.5709 12.7123 12.7123C12.5709 12.8536 12.3907 12.9497 12.1945 12.9881C11.9984 13.0266 11.7952 13.0058 11.6109 12.9283C11.4266 12.8508 11.2697 12.7201 11.16 12.553C11.0503 12.3859 10.9928 12.1899 10.995 11.99Z" fill="#1A1C1F"/>
</g>
<defs>
<clipPath id="clip0_184_35">
<rect width="20" height="20" fill="white"/>
</clipPath>
</defs>
</svg>

<svg xmlns="http://www.w3.org/2000/svg" width="20" height="20" fill="none"><g clip-path="url(#a)"><path fill="#1A1C1F" fill-rule="evenodd" d="M10.04 1.723c.6-.018 1.2.275 1.58.744l.593.731.955-.225a2 2 0 0 1 .487-.06c1.096 0 2.02.853 2.08 1.95l.052.934.898.375A2.12 2.12 0 0 1 18 8.112c0 .386-.12.772-.345 1.115l-.508.773.507.836c.206.34.326.727.326 1.134a2.05 2.05 0 0 1-1.318 1.904l-.875.33-.08.975c-.084 1.012-.915 1.928-2.073 1.928a2 2 0 0 1-.525-.062l-.896-.243-.64.739c-.445.512-.913.714-1.614.736-.6.018-1.2-.275-1.58-.744l-.592-.731-.955.225a2 2 0 0 1-.487.06c-1.096 0-2.02-.853-2.08-1.95l-.052-.934-.899-.372C2.514 13.499 2 12.76 2 11.909c0-.407.12-.793.345-1.136L2.853 10l-.513-.854a2.2 2.2 0 0 1-.32-1.116 2.05 2.05 0 0 1 1.318-1.904l.875-.33.102-.974c.04-1.096.974-1.929 2.05-1.929.183 0 .366.02.526.062l.896.243.636-.743c.433-.504.917-.71 1.618-.732zm-.02 1.983-.624.755a2.05 2.05 0 0 1-2.138.67l-.892-.248-.061.04-.057.935a2.04 2.04 0 0 1-1.323 1.808l-.874.324-.02.081.507.794c.205.322.325.709.325 1.094 0 .406-.12.793-.346 1.136l-.507.773.02.081.875.342A2.06 2.06 0 0 1 6.221 14.1l.043.935.06.041.893-.23a2.03 2.03 0 0 1 2.134.694l.588.734h.081l.589-.734a2.01 2.01 0 0 1 1.564-.748c.182 0 .384.025.57.076l.891.249.061-.04.057-.935a2.04 2.04 0 0 1 1.323-1.808l.874-.324.02-.081-.507-.794a2.06 2.06 0 0 1-.325-1.094c0-.406.12-.793.346-1.136l.507-.773-.02-.081-.875-.342A2.06 2.06 0 0 1 13.779 5.9l-.043-.935-.06-.041-.896.242a2.08 2.08 0 0 1-2.127-.712l-.592-.728c0-.02-.021-.02-.041-.02M6.995 8.01a1.006 1.006 0 1 1 2.01 0 .996.996 0 0 1-.995.995 1 1 0 0 1-1.015-.995m.101 3.492 4.406-4.426 1.422 1.422-4.426 4.406zm3.899.488c0-.548.447-.995.995-.995a1.006 1.006 0 1 1-.995.995" clip-rule="evenodd"/></g><defs><clipPath id="a"><path fill="#fff" d="M0 0h20v20H0z"/></clipPath></defs></svg>
